Sources/FrostedUI/Resources/Icons.xcassets/timeSkipRight20.imageset/time-skip-right-20.svg

<svg width="20" height="20" viewBox="0 0 20 20" fill="none" xmlns="http://www.w3.org/2000/svg" data-fui-icon="true">
  <path
    d="M9.93359 2.25C5.20848 2.25 2.25 5.86223 2.25 10C2.25 14.1378 5.20848 17.75 9.93359 17.75C13.3074 17.7499 15.9949 15.61 17.0742 13.04C17.2344 12.6583 17.0553 12.2191 16.6738 12.0586C16.2919 11.8982 15.8518 12.0781 15.6914 12.46C14.8254 14.5217 12.652 16.2499 9.93359 16.25C6.12539 16.25 3.75 13.4007 3.75 10C3.75 6.59931 6.12539 3.75 9.93359 3.75C13.2604 3.75011 14.9333 5.94381 15.4785 7.76953H13.5C13.0858 7.76953 12.75 8.10532 12.75 8.51953C12.7502 8.93361 13.0859 9.26953 13.5 9.26953H16.2002C17.0628 9.26942 17.7498 8.56519 17.75 7.71191V4C17.75 3.58579 17.4142 3.25 17 3.25C16.5858 3.25 16.25 3.58579 16.25 4V5.80078C15.1977 3.95638 13.1922 2.25009 9.93359 2.25ZM9.75 5.75C9.33579 5.75 9 6.08579 9 6.5V10.5C9 10.7194 9.09604 10.9259 9.25977 11.0674L9.33398 11.124L11.584 12.624C11.9286 12.8538 12.3943 12.7607 12.624 12.416C12.8538 12.0714 12.7607 11.6057 12.416 11.376L10.5 10.0986V6.5C10.5 6.08579 10.1642 5.75 9.75 5.75Z"
    fill="currentColor"
  />
</svg>

<svg xmlns="http://www.w3.org/2000/svg" width="20" height="20" fill="none" data-fui-icon="true" viewBox="0 0 20 20"><path fill="currentColor" d="M9.934 2.25C5.208 2.25 2.25 5.862 2.25 10s2.958 7.75 7.684 7.75c3.373 0 6.06-2.14 7.14-4.71a.75.75 0 1 0-1.383-.58c-.866 2.062-3.039 3.79-5.757 3.79-3.809 0-6.184-2.85-6.184-6.25s2.375-6.25 6.184-6.25c3.326 0 5 2.194 5.545 4.02H13.5a.75.75 0 0 0 0 1.5h2.7c.863 0 1.55-.705 1.55-1.558V4a.75.75 0 0 0-1.5 0v1.8c-1.052-1.844-3.058-3.55-6.316-3.55m-.184 3.5A.75.75 0 0 0 9 6.5v4c0 .22.096.426.26.567l.074.057 2.25 1.5a.75.75 0 1 0 .832-1.248L10.5 10.099V6.5a.75.75 0 0 0-.75-.75"/></svg>
